src/icons/scalable/actions/thumbs-up-outline-symbolic.svg

<?xml version="1.0" encoding="UTF-8"?>
<svg xmlns="http://www.w3.org/2000/svg" height="16px" viewBox="0 0 16 16" width="16px"><path d="m 0 15 c 0 0.550781 0.449219 1 1 1 h 11 c 1.011719 0 1.78125 -0.8125 1.980469 -1.800781 l 1 -4.96875 c 0.011719 -0.066407 0.019531 -0.132813 0.019531 -0.199219 v -2.0625 c 0 -1.074219 -0.847656 -2 -2 -2 h -3.402344 l 0.996094 1.113281 l 0.398438 -3.46875 l -0.027344 0.144531 c 0.375 -1.394531 -0.664063 -2.757812 -1.964844 -2.757812 h -2 c -0.398438 0 -0.757812 0.234375 -0.917969 0.601562 l -3.039062 7 l 0.914062 -0.601562 h -2.957031 c -0.550781 0 -1 0.449219 -1 1 z m 3.957031 -6 c 0.398438 0 0.761719 -0.234375 0.917969 -0.601562 l 3.042969 -7 l -0.917969 0.601562 h 2 c -0.039062 0 -0.054688 -0.007812 -0.054688 -0.007812 s 0 0 0.003907 0.003906 c 0.003906 0 0.003906 0.003906 0.007812 0.003906 c 0 0 0.003907 0.003906 0.003907 0.003906 c 0.003906 0 0.003906 0.003906 0.007812 0.003906 c 0.003906 0.003907 0.007812 0.007813 0.011719 0.007813 c 0.046875 0.046875 0.09375 0.078125 0.054687 0.226563 c -0.015625 0.046874 -0.023437 0.09375 -0.027344 0.144531 l -0.402343 3.46875 c -0.03125 0.28125 0.058593 0.566406 0.246093 0.777343 c 0.191407 0.214844 0.460938 0.335938 0.746094 0.335938 h 3.402344 c 0.03125 0 0.011719 0 0.003906 -0.007812 c -0.007812 -0.003907 -0.007812 -0.007813 -0.003906 0 v 0.007812 v 2.0625 l 0.019531 -0.199219 l -1 4.972657 c -0.027343 0.128906 -0.078125 0.191406 -0.09375 0.207031 c -0.003906 0.003906 -0.003906 0.003906 -0.003906 0.003906 s -0.003906 0 -0.003906 0.003906 c 0 0 0.003906 0 0.003906 -0.003906 h 0.003906 s 0 -0.003906 0.003907 -0.003906 c 0.011718 -0.003907 0.039062 -0.011719 0.070312 -0.011719 h -11 l 1 1 v -7 l -1 1 z m 0 0"/></svg>

<svg xmlns="http://www.w3.org/2000/svg" width="16" height="16" viewBox="0 0 16 16"><path d="M0 15c0 .55.45 1 1 1h11c1.012 0 1.781-.812 1.98-1.8l1-4.97q.019-.099.02-.199V6.97c0-1.074-.848-2-2-2H9.598l.996 1.113.398-3.469-.027.145C11.34 1.363 10.3 0 9 0H7a1 1 0 0 0-.918.602l-3.039 7L3.957 7H1c-.55 0-1 .45-1 1zm3.957-6a1 1 0 0 0 .918-.602l3.043-7L7 2h2c-.04 0-.055-.008-.055-.008l.004.004.008.004.004.004.008.004q.006.007.011.008c.047.047.094.078.055.226a.6.6 0 0 0-.027.145l-.403 3.468c-.03.282.06.567.247.778.191.215.46.336.746.336H13c.031 0 .012 0 .004-.008-.008-.004-.008-.008-.004 0v2.07l.02-.199-1 4.973a.43.43 0 0 1-.094.207l-.004.004s-.004 0-.004.004q.002.001.004-.004h.004s0-.004.004-.004A.2.2 0 0 1 12 14H1l1 1V8L1 9zm0 0"/></svg>
